X:315
T: Das letzte Stuendlein
N: A0659B
O: Europa, Mitteleuropa, Deutschland
N: M. Praetorius, Mus. Sion. VIII. No. 226
R: Romanze, Ballade, Lied, religioeses Lied
M: 4/2
L: 1/4
K: F
 |  |  | F4F2A2 | G2F2G2A2 | F4z2
F2 | F2F2c2B2 | A4G4 |
F4F2A2 | G2F2G2A2 | F4z2
F2 | F2F2c2B2 | A4G4 | z2
G2c2A2 | G2B2A2G2 | F4z2
A2 | G2F2E2C2 | E2F2G2z2 |
F4A2c2 | B3AG2A2 | G4F4

@@@ Tune index: 628
